!!!OTL: 54. Skotshne
!!!Genre:	Skotshne
!!!Mode:	Altered Dorian
!!!Listening/dance:	listening
!!!:	*G:
!!!One_Mode:	no
**kern
*I"P1
*clefG2
*k[b-]
*g:dor
*M2/4
*>A
=1
8dL
8g
8b-
8ddJ
=2
16cc#XLL
16dd
16ee
16ddJJ
16cc#LL
16b-
16a
16gJJ
=3
16cc#XLL
16dd
16ee
16ddJJ
16cc#LL
16b-
16a
16b-JJ
=4
(16cc#XLL
16eeJ
8ddJ)
4gg
=5
8dL
8g
8b-
8ddJ
=6
16cc#XLL
16dd
16ee
16ddJJ
16cc#LL
16b-
16a
16gJJ
=7
16b-LL
16a
16ccnX
16b-JJ
16ddLL
16cc
16b-
16aJJ
=8
4g
4G
=9:|!|:
*>B
16ggLL
16ff
16ee
16ddJJ
8cc#XL
8b-J
=10
16cc#XLL
(8qee/
16dd)
16cc#
16b-JJ
8aL
8gJ
=11
16aLL
16b-
16cc#X
16ddJJ
(8qdd/
16cc#LL)
16b-
16a
16gJJ
=12
4dd
4gg
=13
16ggLL
16aa
16bb-
16aaJJ
16ggLL
16ff
16ee
16ddJJ
=14
16eeLL
16ff
16gg
16ffJJ
16eeLL
16dd
16cc#X
16b-JJ
=15
16cc#XLL
16dd
16ee
16ddJJ
16cc#LL
16b-
16a
16b-JJ
*>B1
=16
2g
*>B2
=17:|!
[4g
16gLL]
16d
16g
16aJJ
*>bM
*G:
=18!|:
*>C
*k[f#]
*G:
!LO:TX:a:i:t=G-major
[4b
16bLL]
16g
16dd
16ccJJ
=19
8.bL
16aJk
8bL
16aL
16gJJ
=20
16aLL
16b
16cc
16eeJJ
16ddLL
16cc
16b
16aJJ
=21
[4b
16bLL]
16d
16g
16aJJ
=22
[4b
16bLL]
16g
16dd
16ccJJ
=23
4b
8bL
(16aL
16gJJ)
=24
16aLL
16b
16cc
16eeJJ
16ddLL
16cc
16b
16aJJ
*>C1
=25
[4g
16gLL]
16d
16g
16aJJ
*>C2
=26:|!
2g
*>eM
*g:dor
!LO:TX:a:i:t=G-dorian
=27||
*>D
*k[b-]
16aLL
16b-
16a
16b-JJ
16cc#XLL
16dd
16cc#
16ddJJ
=28
16eeLL
16ff
16ee
16ddJJ
16cc#XLL
16b-
16a
16gJJ
=29
16aLL
16b-
16cc#X
16ddJJ
16eeLL
16dd
16cc#
16b-JJ
=30
8aL
8aa
8aa
8aaJ
=31
16aLL
16b-
16a
16b-JJ
16cc#XLL
16dd
16cc#
16ddJJ
=32
16eeLL
16ff
16ee
16ddJJ
16cc#XLL
16b-
16a
16gJJ
=33
16cc#XLL
16dd
16ee
16ddJJ
16cc#LL
16b-
16a
16b-JJ
=34
2g
=35||
*>E
8dL
8g
8b-
8ddJ
=36
16cc#XLL
16dd
16cc#
16b-JJ
8aL
8gJ
=37
8ddL
8cc#XJ
16b-LL
16a
16b-
16cc#JJ
=38
4dd
4gg
=39
8dL
8g
8b-
8ddJ
=40
16cc#XLL
16dd
16cc#
16b-JJ
8aL
8gJ
=41
8ddL
8cc#XJ
16b-LL
16aJ
8ddJ
=42
2g
=43!|:
*>F
2gg
=44
2gg
=45
4gg
4gg
=46
4gg
4gg
=47
8ggL
16ffL
16eeJJ
8ddL
8cc#XJ
=48
16ddLL
16cc#X
16b-
16aJJ
4g
=49
8ggL
16ffL
16eeJJ
8ddL
8cc#XJ
=50
4dd
4gg
=51
8ggL
16ffL
16eeJJ
8ddL
8cc#XJ
=52
16ddLL
16cc#X
16b-
16aJJ
4g
=53
16b-LL
16a
16ccn
16b-JJ
16ddLL
16cc
16b-
16aJJ
=54
2g
*>bM
*G:
!LO:TX:a:i:t=G-major
=55:|!
*>G
*k[f#]
*G:
4b
16bLL
16a
16dd
16ccJJ
=56
4b
16bLL
32ccL
32bJ
16a
16gJJ
=57
16aLL
16b
16cc
16eeJJ
16ddLL
16cc
16b
16aJJ
=58
8gL
8gg
8gg
8ggJ
=59
4b
16bLL
16a
16dd
16ccJJ
=60
4b
16bLL
32ccL
32bJ
16a
16gJJ
=61
16aLL
16b
16cc
16eeJJ
16ddLL
16cc
16b
16aJJ
=62
2g
=63!|:
*>H
16f#LL
16d
16f#
16dJJ
4g
=64
16f#LL
16d
16f#
16dJJ
4g
=65
16f#LL
16d
16f#
16dJJ
16gLL
16d
16g
16dJJ
=66||
16aLL
16d
16a
16dJJ
16ccLL
16b
16a
16gJJ
=67||
16f#LL
16d
16f#
16dJJ
4g
=68
16f#LL
16d
16f#
16dJJ
4g
*>H1
=69
16aLL
16ee
16dd
16ccJJ
16bLL
16cc
16a
16bJJ
=70
2g
*>H2
=71:|!
16gLL
16a
16b
16ccJJ
8ddL
8aJ 8ff#
=72
2b 2gg
*>eM
==
*-
